assets/assets/svgs/cv_icon.svg

<?xml version="1.0" encoding="utf-8"?><!-- Uploaded to: SVG Repo, www.svgrepo.com, Generator: SVG Repo Mixer Tools -->
<svg width="800px" height="800px" viewBox="0 0 24 24" fill="none" xmlns="http://www.w3.org/2000/svg">
<path d="M13 9L15 15L17 9M10 15C9.06812 15 8.60218 15 8.23463 14.8478C7.74458 14.6448 7.35523 14.2554 7.15224 13.7654C7 13.3978 7 12.9319 7 12C7 11.0681 7 10.6022 7.15224 10.2346C7.35523 9.74458 7.74458 9.35523 8.23463 9.15224C8.60218 9 9.06812 9 10 9M7.2 20H16.8C17.9201 20 18.4802 20 18.908 19.782C19.2843 19.5903 19.5903 19.2843 19.782 18.908C20 18.4802 20 17.9201 20 16.8V7.2C20 6.0799 20 5.51984 19.782 5.09202C19.5903 4.71569 19.2843 4.40973 18.908 4.21799C18.4802 4 17.9201 4 16.8 4H7.2C6.0799 4 5.51984 4 5.09202 4.21799C4.71569 4.40973 4.40973 4.71569 4.21799 5.09202C4 5.51984 4 6.07989 4 7.2V16.8C4 17.9201 4 18.4802 4.21799 18.908C4.40973 19.2843 4.71569 19.5903 5.09202 19.782C5.51984 20 6.07989 20 7.2 20Z" stroke="#2D9CDB" stroke-width="2" stroke-linecap="round" stroke-linejoin="round"/>
</svg>

<svg xmlns="http://www.w3.org/2000/svg" width="800" height="800" viewBox="0 0 24 24" fill="none" xmlns:v="https://vecta.io/nano"><path d="M13 9l2 6 2-6m-7 6c-.932 0-1.398 0-1.765-.152a2 2 0 0 1-1.082-1.082C7 13.398 7 12.932 7 12s0-1.398.152-1.765a2 2 0 0 1 1.082-1.082C8.602 9 9.068 9 10 9M7.2 20h9.6c1.12 0 1.68 0 2.108-.218a2 2 0 0 0 .874-.874C20 18.48 20 17.92 20 16.8V7.2c0-1.12 0-1.68-.218-2.108a2 2 0 0 0-.874-.874C18.48 4 17.92 4 16.8 4H7.2c-1.12 0-1.68 0-2.108.218a2 2 0 0 0-.874.874C4 5.52 4 6.08 4 7.2v9.6c0 1.12 0 1.68.218 2.108a2 2 0 0 0 .874.874C5.52 20 6.08 20 7.2 20z" stroke="#2d9cdb" stroke-width="2" stroke-linecap="round" stroke-linejoin="round"/></svg>
